X: 6928
T: Cherline Chase
R: polka
M: 2/4
K: Cmajor
|:C>D EG|Bc A2|F{GF}E DF|EG FD|
C>D EG|Bc A>e|fd BG|B/c/d c2:|
|:e2 eg|f2 fd|BG B/c/d|cB AG|
e2 eg|f2 fd|BG B/c/d|ec c2:|

